X: 183
T: No_42_Cow_Creek_Hunting_Dance_Song_(i).krn
N: Derived from No_42_Cow_Creek_Hunting_Dance_Song_(i).krn
%%abc-version 2.0
%%abcx-abcm2ps-target-version 5.9.1 (29 Sep 2008)
%%abc-creator hum2abc beta
%%abcx-conversion-date 2019/03/15 08:38:45
%%humdrum-veritas 2234564372
%%humdrum-veritas-data 1418117159
%%linebreak <none>
%%barnumbers 0
L: 1/8
M: 3/4
K: F clef=bass
[K:clef=bass][M:3/4]z4C3/A,/ | 
A,4-A,G, ||  
[M:2/4]A,3/F,/F,2 ||  
[M:3/4]F,4A,G, ||  
[M:2/4]F,2D,2 ||  
[M:3/4]D,4G,F, ||  
[M:2/4]D,3/D,/D,2 | 
D,4 | 
D,2A,F, ||  
[M:3/4]A,4-A,G, ||  
[M:2/4]A,3/F,/F,2 | 
F,4 | 
A,G,C2 | 
A,3G, | 
A,3/F,/F,2 ||  
[M:3/4]F,4A,G, ||  
[M:2/4]F,2D,2 ||  
[M:3/4]D,4A,G, ||  
[M:2/4]D,3/D,/D,2 | 
D,4 |]  



